X: 27252
T: Miss Shepherd
R: reel
M: 4/4
K: Adorian
|:A,B,CD E2DC|B,GFG DB,G,B,|A,B,CD EGAC'|BAGB BC'A2:|
K:D
|:A'2E'D' C'AAF|GED=C B,G,G,2|1 ^G'A'E'D' C'AAF|GABD' C'AA2:|2 A,B,=CD EGA=C'|BAGB B=C'A2||

